!!!COM:	Busnoys, Antoine
!!!CDT:	~1430///-1492/11/06
!!!OTL:	Con tutta gentile&ccedil;a
!!!AGN:	Song; Chanson
!!!SCT:	Bus3015
!!!SCA:	Bus3015
!!!voices:	3
**kern	**kern	**kern
*staff3	*staff2	*staff1
*Ivox	*Ivox	*Ivox
*I"Contratenor	*I"Tenor	*I"Superius
*I'Ct	*I'T	*I'S
*clefF4	*clefGv2	*clefG2
*k[b-]	*k[b-]	*k[b-]
*M2/1	*M2/1	*M2/1
*met(C|)	*met(C|)	*met(C|)
=1-	=1-	=1-
!!LO:TX:Z=12:t=Rondeau?
0GG	0G	0g
=2	=2	=2
1G	1B-	1d
1C	1c	1e
=3	=3	=3
0D	0A	1.f#i
.	.	4e
.	.	4f#i
=4	=4	=4
0GG	2G	0g
.	1B-	.
.	2c	.
=5	=5	=5
1AA	2A	1f
.	4G	.
.	4A	.
1GG	2B-	1g
.	4A	.
.	4G	.
=6	=6	=6
1D	1F	1a
[1GG	[1G	2g
.	.	[2b-
=7	=7	=7
1GG]	1G]	2b-]
.	.	2a
1D	1A	2f
.	.	4e
.	.	4f
=8	=8	=8
2.GG	1.B-	2.g
4AA	.	4f
1BB-	.	1d
.	2G	.
=9	=9	=9
1C	2A	1r
.	4G	.
.	4A	.
1BB-	2B-	1d
.	[2G	.
=10	=10	=10
1C	2G]	1e
.	1A	.
1D	.	1f
.	[2B-	.
=11	=11	=11
1E-	2B-]	1g
.	1c	.
1F	.	1a
.	4B-	.
.	4c	.
=12	=12	=12
0D;	0d;	0f#i;
=13	=13	=13
1.G	0r	0g
2E	.	.
=14	=14	=14
1F	1r	1a
2.B-	[1G	2g
.	.	[2b-
4A	.	.
=15	=15	=15
2G	1G]	2b-]
4F	.	2a
4E	.	.
1D	1A	2.f#i
.	.	4e
=16	=16	=16
2.GG	2G	2.g
.	1B-	.
4AA	.	4f
2.BB-	.	1d
.	4A	.
4C	4G	.
=17	=17	=17
1D	2.F#i	1a
.	4E	.
1GG	1G	[1b-
=18	=18	=18
1.G	1.B-	2b-]
.	.	2a
.	.	1g
4F	2c	.
4E	.	.
=19	=19	=19
1D	1d	1f
2E	1G	2g
[2G	.	[2b-
=20	=20	=20
4G]	1d	4b-]
4F	.	4a
2.F	.	1a
.	2c	.
4E	.	.
2D	2d	2b-
=21	=21	=21
1C	2e-	2cc
.	2c	2a
2G	1d	2b-
2D	.	[2a
=22	=22	=22
2F	2c	4a]
.	.	4g
2G	2B-	1g
1D	1A	.
.	.	2f#i
=23	=23	=23
1G	1r	0g
1r	1G	.
=24	=24	=24
1G	1B-	1r
1E	1c	1g
=25	=25	=25
0D	0d	1.f
.	.	4e
.	.	4d
=26	=26	=26
1C	1g	1e
1D	[1f	[1d
=27	=27	=27
1BB-	2f]	1d]
.	4e	.
.	4d	.
1C	1e	1c
=28	=28	=28
1.D	0d	2B-
.	.	2.d
.	.	4c
2E	.	2B-
=29	=29	=29
1F	1c	1A
[1G	2B-	1G
.	[2d	.
=30	=30	=30
1G]	4d]	1r
.	4c	.
.	2B-	.
1D	1A	1f
=31	=31	=31
1E	1G	1g
1D	1r	1a
=32	=32	=32
1GG	1G	1b-
1D	1A	2a
.	.	[2f
=33	=33	=33
1BB-	2.B-	2f]
.	.	2g
.	4A	.
1AA	1F	2a
.	.	4g
.	.	4a
=34	=34	=34
1GG	2G	2b-
.	2A	4a
.	.	4g
2r	1B-	2f
2GG	.	[2g
=35	=35	=35
2D	2A	4g]
.	.	4f
2G	2B-	1b-
1F	1c	.
.	.	2a
=36	=36	=36
1G	2.B-	1b-
.	4G	.
2D	2B-	1r
2C	[2A	.
=37	=37	=37
2D	4A]	0r
.	4G	.
2BB-	1G	.
1AA	.	.
.	2F#i	.
=38	=38	=38
1GG	1G	1b-
1r	1F	2a
.	.	2cc
=39	=39	=39
1GG	2r	2b-
.	2G	4a
.	.	4g
1D	1A	1f#i
=40	=40	=40
1G	1B-	1g
1F	2A	2r
.	2F	2a
=41	=41	=41
1E	2G	1b-
.	4F	.
.	4G	.
2F	2A	2a
2D	[2d	2f
=42	=42	=42
1E	2d]	1g
.	2c#i	.
2D	[1d	2f
[2G	.	[2b-
=43	=43	=43
2G]	1d]	4b-]
.	.	4a
2.F	.	2.a
.	1d	.
4E	.	4g
2D	.	2f
=44	=44	=44
1C	1e	2g
.	.	2e
[1D	2.f	2d
.	.	[2f
.	4e	.
=45	=45	=45
1D]	1.d	4f]
.	.	4g
.	.	1a
2r	.	.
2G	2B-	[2b-
=46	=46	=46
2F	1c	4b-]
.	.	4a
2A	.	2.cc
2G	1d	.
.	.	4b-
2D	.	[2a
=47	=47	=47
2F	2c	4a]
.	.	4g
2G	2B-	2.g
1D	1A	.
.	.	4e
.	.	2f#i
=48	=48	=48
0GGl	0Gl	0gl
==	==	==
*-	*-	*-
!!!RDF**kern: l=long note in original notation
!!!RDF**kern: i=editorial accidental
!!!ENC:	Chris Gage 04-20-2015
!!!END:	2015/05/01/
!!!EED:	Jesse Rodin
!!!EEV:	2015/05/10/
!!!ONB:	Translated from MusicXML and edited on 2015/05/10/ by Craig Sapp
!!muse2ps: C^@{COM}^i2I150v95,95,150Q16
